icons/terraform.svg

<svg width="32" height="32" viewBox="0 0 32 32" fill="none" xmlns="http://www.w3.org/2000/svg">
<path fill-rule="evenodd" clip-rule="evenodd" d="M12.5066 8.01531L19.2375 12.1073V20.2894L12.5066 16.1992V8.01531Z" fill="#7B42BC"/>
<path fill-rule="evenodd" clip-rule="evenodd" d="M20.0294 12.1073V20.2894L27.1563 16.1992V8.01531L20.0294 12.1073Z" fill="#7B42BC"/>
<path fill-rule="evenodd" clip-rule="evenodd" d="M4.58781 3.66V11.5787L11.7147 15.5381V7.61937L4.58781 3.66Z" fill="#7B42BC"/>
<path fill-rule="evenodd" clip-rule="evenodd" d="M12.5066 25.04L19.2375 29V21.1348V21.0818L12.5066 17.1219V25.04Z" fill="#7B42BC"/>
</svg>

<svg width="32" height="32" fill="none" xmlns="http://www.w3.org/2000/svg"><path fill-rule="evenodd" clip-rule="evenodd" d="M12.507 8.015l6.73 4.092v8.182l-6.73-4.09V8.015zm7.523 4.092v8.182l7.126-4.09V8.015l-7.127 4.092zM4.588 3.66v7.919l7.127 3.96v-7.92L4.588 3.66zm7.919 21.38l6.73 3.96v-7.918l-6.73-3.96v7.918z" fill="#7B42BC"/></svg>
